X: 180111
T: Road to Recess
S: Mike Reynolds (as "gan ainm")
N: Appears to be a setting of "The Hare's Paw"
Z: B.Black
R: reel
M: 4/4
L: 1/8
K: G
GABG ABGA |BE (3EDE GEDE |GFGA BGBd |(3efg fg egdB |
GABG ADGA |BE (3EDE GEDE |GFGA BGBd |(3efg fg e2 ef ||
g2 fg edBc | d2 ed Bdef |g2 fg edBc |(3efg fg edef |
gefd edBc | d2 ed Bdef | (3efg fa gfed | ea (3aga gedB ||
